assets/symbols/mulberry/morning.svg

<svg height="850.394" viewBox="0 0 850.394 850.394" width="850.394" xmlns="http://www.w3.org/2000/svg"><path d="m394.89 506.13c0 12.82-2.42 25.07-6.83 36.33h-185.65c-4.42-11.25-6.84-23.5-6.84-36.33 0-55.04 44.62-99.66 99.67-99.66 55.03 0 99.65 44.62 99.65 99.66z" fill="#fbed24"/><g fill="none"><path d="m388.03 542.53c.01-.021.02-.05.03-.07 4.41-11.26 6.83-23.51 6.83-36.33 0-55.04-44.62-99.66-99.65-99.66-55.05 0-99.67 44.62-99.67 99.66 0 12.83 2.42 25.08 6.84 36.33m93.6-154.13v-75.81m60.47 90.57 41.88-63.2m1.53 109.79 68.69-32.1m-235.2-15.7-41.87-63.2m-1.54 109.78-68.68-32.1m292.72 90.94h75.81m-388.01 0h75.82m569.83 35.16h-645.92" stroke="#231f20" stroke-width="21"/><path d="m0 0h850.394v850.394h-850.394z"/></g></svg>

<svg xmlns="http://www.w3.org/2000/svg" width="850.394" height="850.394" viewBox="0 0 850.394 850.394" overflow="visible"><path d="M394.89 506.13c0 12.82-2.42 25.07-6.83 36.33H202.41c-4.42-11.25-6.84-23.5-6.84-36.33 0-55.04 44.62-99.66 99.67-99.66 55.03 0 99.65 44.62 99.65 99.66z" fill="#fbed24"/><g fill="none" stroke="#231f20" stroke-width="21"><path d="M388.03 542.53c.01-.021.02-.05.03-.07 4.41-11.26 6.83-23.51 6.83-36.33 0-55.04-44.62-99.66-99.65-99.66-55.05 0-99.67 44.62-99.67 99.66 0 12.83 2.42 25.08 6.84 36.33M296.01 388.33v-75.81M356.48 403.09l41.88-63.2M399.89 449.68l68.69-32.1M233.38 401.88l-41.87-63.2M189.97 448.46l-68.68-32.1M414.01 507.3h75.81M101.81 507.3h75.82M747.46 542.46H101.54"/></g><path fill="none" d="M0 0h850.394v850.394H0z"/></svg>
